X: 100304
T: TO MY BED I WINNA GANG - Reel
R: reel
B: K\"ohler's Violin Repository, v.3, 1885 p.219 #1
F: http://www.archive.org/details/klersviolinrepos03rugg
Z: 2012 John Chambers <jc:trillian.mit.edu>
M: C|
L: 1/8
K: D
ug |\
(f/g/a) (AB) ABdF | EDEF B2(Bg) | (f/g/a) (AB) ABde | faef d2(d ||
ue) |\
f2fd g2ge | f2fd B2de | f2fd g2ge | (f/g/a) (ef) d2(de) |
(fe)fd (gf)ge | (fe)fd (Bc)de | (fa)fd (gb)ge | faef d2"Fine."d |]

%%sep 2 1 500

